X:1
T:Title
%%score { ( 1 4 ) | ( 2 3 ) }
L:1/8
Q:1/4=100
M:4/4
K:F
V:1 treble nm="Grand Piano"
V:4 treble 
V:2 bass 
V:3 bass 
V:1
 F2 F2 G2 F2 | B4 A4 | F2 GA [CEB]2 [CFA]2 | G8 | c2 c2 B2 B2 | A3 [EG] [DF]4 | %6
w: S.~M.~Bixby * * *||||||
 [FA]2 [DF]G [A,FA]2 [F=B]2 | [Ec]8 | F2 F2 G2 F2 | B4 A4 | A2 GA B2 c2 | d4- [Fd]4 | %12
w: ||||||
 [Ff]3 [Ff] [Fe]2 [Fd]2 | c3 B [CFA]4 | [Ed]2 [Ec]2 [EB]2 [B,EG]2 |[M:8/4] [A,F]8 z8 | %16
w: ||||
[M:4/4] [DFB]8 | [CFA]8 |] %18
w: ||
V:2
 [F,A,]2 [F,A,]2 [F,B,F]2 [F,A,]2 | [F,F]4 [F,CF]4 | z2 .B,2 z4 | z4 E4 | %4
 [A,CF]2 [A,CF]2 [G,CE]2[K:bass] [G,CE]2 | [F,CF]3 [C,B,] [D,A,]4 | [D,A,]2 z E D,2 G,2 | G,4 z4 | %8
 [F,A,]2 [F,A,]2 [F,B,F]2 [F,A,]2 | [F,DF]4 [F,CF]4 | [F,C_E]2 [F,CE]2 [F,B,D]2 [F,A,E]2 | %11
 B,4 F,2 G,2 | [=B,,_A,]3 [B,,A,] [B,,A,]2 [B,,A,]2 | A,3 D C,4 | [C,B,]2 [C,A,]2 [C,G,]2 C,2 | %15
[M:8/4] F,8 z8 |[M:4/4] B,,8 | F,8 |] %18
V:3
 x8 | x8 | [F,A,]2 [F,F]-[F,CF] G,2 A,B, | C8 | x6[K:bass] x2 | x8 | z2 [D,A,]2 z4 | C,8 | x8 | %9
 x8 | x8 | B,,8 | x8 | C,4 z4 | x8 |[M:8/4] x16 |[M:4/4] x8 | x8 |] %18
V:4
 x8 | x8 | x8 | F4 z2 A,2 | x8 | x8 | x8 | z4 B,4 | x8 | x8 | x8 | D4 z4 | x8 | F4 z4 | x8 | %15
[M:8/4] x16 |[M:4/4] x8 | x8 |] %18

